X:1
T:Spooky-Ooky Blues
T:Spooky-Ooky Blues
T:Novelty Fox Trot Song
T:Words and Music by CARL D. VANDERSLOOT
T: 
T:1920
T:1920
T:1920
T:1920
T:1920
C:Words and Music by CARL D. VANDERSLOOT
Z:Composer of "Hawaiian Twilight" "Some Little Girl" The American Legion" "General Pershing" etc. etc
Z:1920
%%score 1 { 2 | 3 }
L:1/8
Q:1/4=114
M:4/4
K:F
V:1 treble nm="Voice"
V:2 treble nm="Piano"
V:3 bass 
V:1
"^Moderato" z z z2 z4 | z8 | z8 | z8 |: z8 | z8 :| z2 A2 A2 A2 | A2 A2 A2 A2 | z2 A2 ^G2 A2 | F8 | %10
w: ||||||I heard a|jazz band play- ing,|a spoo- ky|tune,|
 z2 A2 A2 A2 | A2 A2 A2 A2 | z2 B2 A2 B2 | G8 | z2 A2 A2 ^G2 | A ^G2 (=G G4) | z2 A2 ^G A3 | F8 | %18
w: And all the|folks are say- ing,|"You'll learn it|soon;"|since then I've|had the Blues *|from morn 'til|night,|
 G2 G(G G)A=Bc | d2 d2 d2 d>^d | e2 e2 d2 ^d2 | c2 z2 z2 c>B |:"^CHORUS" A2 A2 A2 A2 | %23
w: spoo- ky- oo * ky- oo- ky-|oo- ky Blues so I|guess the folks were|right. They're the|Spoo- ky oo- ky|
 (A4 A2) A>G | F2 F2 F2 F2 | F8 | ^F2 G2 F2 G2 | ^F G2 (c c4) | A>^G A>G A>G A>G | %29
w: Blues, _ Spoo- ky-|oo- ky- oo- ky|Blues,|Start the shi- vers,|make me creep, *|Give me fun- ny feel- in's when I|
 A>_A G>_G F2 c>B | A2 A2 A2 A2 | (A4 A2) A>G | F2 F2 F2 F2 | F8 | G2 G2 G>A =B>c | d2 d2 d4 | %36
w: try to go to sleep; They're the|Spoo- ky- oo- ky|Blues, _ Spoo- ky-|oo- ky- oo- ky|Blues,|Keep me hum- min' all the|live long day,|
 e>^d e>d e>d e>d | e>_e d>_d c2 c>B | A2 A2 A2 A2 | (A4 A2) A>G | F2 F2 F2 F2 | (F4 F2) C2 | %42
w: Make me shake my should- ers when the|band be- gins to play Spoo- ky-|oo- ky- oo- ky|Blues _ Have you|heard the lat- est|news _ They're|
 FFF(D D2) C2 | AAA(G G2) F2 | z2 c>=B c2 G2 | F2 z2 z4 | z2 C2 D>C D>C | F2 z2 z2 C2 |1 %48
w: mak- in' me la- * zy,|Driv- in' me cra _ zy,|But I love those|Blues|Those Spoo- ky- oo- ky|Blues, Some|
 F2 z2 z2 c>B :|2 F2 z2 z4 || c8 | =B8 | B>A B>A B2 c2 | A8 | A8 | _A8 | G^F<GF/G A3 z/ | %57
w: Blues! They're the|Blues!|Blues!|Blues!|All the time I've got the|Blues,|Blues,|Blues,|Spoo- ky- oo- ky- oo- ky|
 (F4 F2) z2 | z3/2 (C/ D>)C F2 z2 |] %59
w: Blues. _|Spoo- oo- ky Blues.|
V:2
 z2!f! [Ec]>[_E=B] [D_B]2 [B,CG]2 | [A,CF]2 cd/e/ f>d c>A | F2 C2 [DF]>C [DF]>C | %3
 [CA]2 z z !>![FAcf]2 z2 |:!p! z z [CFA]2 [DFA]2 [_DFA]2 | [DEB] [CEA]2 [B,EG] [B,EG]2{/=B} c2 :| %6
 z2 [CFA]2 [DFA]2 [_DFA]2 | [CFA]2 [^CFA]2 [DFA]2 [_DFA]2 | z2 [CFA]2 [=B,^FG]2 [C=FA]2 | [A,CF]8 | %10
 z2 [CFA]2 [DFA]2 [_DFA]2 | [CFA]2 [^CFA]2 [DFA]2 [_DFA]2 | z2 [CEB]2 [CEA]2 [CEB]2 | [B,CG]8 | %14
 z2 [^CGA]2 [CGA]2 [C^G]2 | [^CGA]2 ([C^G]2 [CG]4) | z2 [^CGA]2 [C^G] [CA]3 | [A,DF]8 | %18
 [=B,FG]2 [B,FG][B,FG] [B,FG]A[B,F=B][CA] | [DF=Bd]2 [DFAd]2 [DFGd]2 [FBd]>^d | %20
 [GBe]2 [GBe]2 [GBd]2 [GB_d]2 | [GBc]2 z2 z2 [Ec]>B |:!p! [CFA]2!f! [^CFA]2 [DFA]2 [_DFA]2 | %23
 [CFA]4 [CFA]2 [B,A]>G | [A,CF]2 [A,^CF]2 [A,DF]2 [A,_DF]2 | [A,CF]8 | %26
 [B,C^F]2 [B,CG]2 [B,EF]2 [B,EG]2 | [B,C^F] [B,CG]2 ([EBc] [EBc]4) | [CFA]>^G A>G A>G A>G | %29
 A>_A [B,EG]>_G [A,CF]2 [CEc]>B | [CFA]2 [^CFA]2 [DFA]2 [_DFA]2 | ([CFA]4 [CFA]2) [B,A]>G | %32
 [A,CF]2 [A,^CF]2 [A,DF]2 [A,_DF]2 | [A,CF]8 | [=B,FG]2 [B,FG]2 [B,FG]>A [B,F=B]>[Cc] | %35
 [DF=Bd]2 [DFAd]2 [DFGd]4 | [Gce]>^d e>d e>d e>d | e>_e d>^c c2 [E=c]>B | %38
 [CFA]2 [^CFA]2 [DFA]2 [_DFA]2 | ([CFA]4 [CFA]2) [B,A]>G | [A,CF]2 [A,^CF]2 [A,DF]2 [A,_DF]2 | %41
 ([A,CF]4 [A,CF]2) [B,C]2 | [A,F][A,F][A,F]([A,D] [A,D]2) [CE]2 | %43
 [CFA][CFA][CFA]([^CG] [CG]2) [DF]2 | z2 [Ec]>[_E=B] [D_B]2 [B,=EG]2 | [A,CF]cde f>e c>A | %46
 F2 C2 D>C D>C | F2 z2 z2 [GBc]2 |1 %48
 [FAf]2 (!>![^F=Be]>!>![G_B_e] !>![^FAd]>"_l.h."[=F_A_d] !>![EGc]>!>!B) :|2 %49
 [FAf]2 z2 !>![FAf]2 z2 ||!mf! !>![_EAc]8 | !>![D^G=B]8 | [CB]>A B>A [EB] [EBd]3 | [FA]8 | %54
"_dim." [C^FA]8 | [=B,F_A]8 | [=B,FG]>^F [B,=FG]>^F [_B,EFG] [CEA]3 |!p! ([A,F]4 [A,F]2) z2 | %58
 z3/2 (c/ [E^Fd]>c !>![=FAf]2) z2 |] %59
V:3
 [G,,G,]2 z2 [C,,C,]2 z2 | [F,,F,]2 z2 z4 | z2 C,2 [C,E,]2 [C,E,]2 | %3
 [F,,F,]2 z2 !>![F,,C,F,]2 z2 |: [F,,F,]2 z2 [C,,C,]2 z2 | [A,,G,]2 z2 [C,,C,]2{/=B,} C2 :| %6
 [F,,F,]2 z2 [C,,C,]2 z2 | [F,,F,]2 z2 [C,,C,]2 z2 | [F,,F,]2 z2 [C,,C,]2 z2 | %9
 [F,,F,]2{C,,} [C,,C,]2{/D,,} [D,,D,]2{/E,,} [E,,E,]2 |{/F,,} [F,,F,]2 z2 [C,,C,]2 z2 | %11
 [F,,F,]2 z2 [C,,C,]2 z2 | [G,,G,]2 z2 [C,,C,]2 z2 | %13
 [E,,E,]2{/C,,} [C,,C,]2{/D,,} [D,,D,]2{/^D,,} [D,,^D,]2 |{E,,} [E,,E,]2 z2 [A,,,A,,]2 z2 | %15
 [E,,E,]2 z2 z2 [A,,,A,,]2 | [E,,E,]2 z2 [A,,,A,,]2 z2 | %17
 [D,,D,]2{/D,,} [D,,D,]2{/E,,} [E,,E,]2{/F,,} [F,,F,]2 | [D,,D,]2 z2 [G,,,G,,]2 z2 | %19
 [G,,G,]2 [A,,A,]2 [=B,,=B,]2 [G,,G,]2 | [C,,C,]2 [C,,C,]2 [D,,D,]2 [_E,,_E,]2 | %21
 [E,,E,]2 z2 !>![C,,C,]4 |: [F,,F,]2 z2 [C,,C,]2 z2 | %23
 [F,,F,]2{/C,,} [C,,C,]2{/D,,} [D,,D,]2{/E,,} [E,,E,]2 |{/F,,} [F,,F,]2 z2 [C,,C,]2 z2 | %25
 [F,,F,]2{/C,,} [C,,C,]2{/D,,} [D,,D,]2{/^D,,} [D,,^D,]2 |{/E,,} [E,,E,]2 z2 [C,,C,]2 z2 | %27
 [E,,E,]2 z2 [C,,C,]C,D,E, | F, z z2 z4 | z2 [C,,C,]2 [F,,F,]2 [C,,C,]2 | [F,,F,]2 z2 [C,,C,]2 z2 | %31
 [F,,F,]2{/C,,} [C,,C,]2{/D,,} [D,,D,]2{/E,,} [E,,E,]2 | [F,,F,]2 z2 [C,,C,]2 z2 | %33
 [F,,F,]2{/A,,} [A,,A,]2{/G,,} [G,,G,]2{/F,,} [F,,F,]2 | [D,,D,]2 z2 [G,,,G,,]2 z2 | %35
 [D,,D,]2 z2 [G,,,G,,]2 z2 | [C,C] z z2 z4 | z2 [G,,G,]2 [C,C]2 [C,,C,]2 | %38
 [F,,F,]2 z2 [C,,C,]2 z2 | [F,,F,]2{/C,,} [C,,C,]2{/D,,} [D,,D,]2{/E,,} [E,,E,]2 | %40
 [F,,F,]2 z2 [C,,C,]2 z2 | [F,,F,]2{/C,,} [C,,C,]2{/D,,} [D,,D,]2{/E,,} [E,,E,]2 | %42
 [F,,F,]2 z2 [C,,C,]2 z2 | [F,,F,]2 z2 [E,,E,]2 [D,,D,]2 | !>![G,,G,]2 z2 [C,,C,]2 z2 | %45
 [F,,F,]2 z2 z4 | z2 [A,C]2 [_A,=B,]2 [G,_B,]2 | %47
 [F,A,]2{/C,,} [C,,C,]2{/D,,} [D,,D,]2{/E,,} [E,,E,]2 |1 %48
"^/\n     /\n   /\n"{/F,,} [F,,F,]2 z2 z2 z2 :|2{/F,,} [F,,F,]2 z2 !>![F,,F,]2 z2 || %50
 z2 (^F,G, ^G,A,>=G,F,) | z2 F,^F, G,B,>_A,=F, | E,2 G,2 C,2 C2 | %53
 F,2{/C,,} [C,,C,]2{/D,,} [D,,D,]2{/D,,} [D,,E,]2 |{/_E,,} [E,,_E,]2 E,=E, F,_G,>F,_E, | %55
 z2 D,^D, E,F,>E,=D, | _D,2 D,2 C,2 C,,2 | [F,,C,]2 [C,,C,]2 [D,,,F,,]2 z2 | %58
 z2 [C,B,]2 !>!T[F,,C,A,]2 z2 |] %59

